X: 1
T: Glasgow Caledonian Strathspey and Reel Society
C: Angus Fitchet
R: reel
N: Also played as a strathspey
B: Hugh Foss, "The ANGUS FITCHET Album" 1954
Z: 2010 John Chambers <jc:trillian.mit.edu>
M: C|
L: 1/8
K: F
B \
| "F"Ac=Bc dcAF | "Gm"BAGF "C7"ECEG \
| "F"Ac=Bc dcAc | "Bb"df"C7"eg "F"fFF :|
B \
| "F"Acfe dcAF | "Gm"BAGF "C7"ECEG \
| "F"Ac"C7"Bd "F"ce"Bb"df | "C7"efgb "F"aff |]
c \
| "F"Acfe dcAF | "C7"BAGF ECCA, \
| "Gm"B,D"Am"CE "Bb"DF"C7"EG | "C7"cegb "F"aff |]
